web/assets/img/functions/45-hum.svg

<svg xmlns="http://www.w3.org/2000/svg" xml:space="preserve" id="Layer_1" x="0" y="0" style="enable-background:new 0 0 512 512"
     version="1.1" viewBox="0 0 512 512"><style id="style2">.st0{fill:none;stroke:#000;stroke-width:12.7701;stroke-linecap:round;stroke-miterlimit:10}</style>
    <g id="XMLID_21_" transform="translate(27.018 -136.725) scale(1.54766)"><g id="XMLID_22_"><path id="XMLID_23_" d="M150.1 104c-1.2-1.4-3-2.2-4.8-2.2-1.8 0-3.6.8-4.8 2.2-4.5 5.1-109.7 127.2-109.7 188.6 0 63.1 51.4 114.5 114.5 114.5s114.5-51.4 114.5-114.5c0-61.4-105.2-183.5-109.7-188.6zm-4.8 290.4c-56.1 0-101.8-45.7-101.8-101.8 0-49.7 81-149.8 101.8-174.6 8.9 10.7 29 35.2 48.9 63.6 34.6 49.5 52.9 87.9 52.9 111 0 56.1-45.7 101.8-101.8 101.8z"/></g></g>
    <g id="XMLID_14_" transform="translate(27.018 -136.725) scale(1.54766)"><path id="XMLID_15_" d="M100 268v-.2c0-11.8 8.1-21.6 20-21.6s19.8 9.8 19.8 21.3v.2c0 11.7-8 21.6-20 21.6-11.8 0-19.8-9.7-19.8-21.3Zm29.1 0v-.2c0-6.8-3.9-12.3-9.3-12.3-5.7 0-9 5.5-9 12.1v.2c0 6.9 3.9 12.3 9.3 12.3 5.6-.1 9-5.6 9-12.1zm-15.2 56.3 55.3-75.6c.8-1.4 2.4-2.2 4.1-2.2 2.7 0 4.8 2 4.8 4.7 0 1.2-.5 2.3-1.1 3.1L121.7 330c-1 1.4-2.5 2.2-4.2 2.2-2.7 0-4.7-2-4.7-4.7 0-1.3.5-2.4 1.1-3.2zm37.1-13.2v-.2c0-11.8 8.1-21.6 20-21.6 11.8 0 19.8 9.8 19.8 21.3v.2c0 11.7-8.1 21.6-20 21.6-11.8.1-19.8-9.7-19.8-21.3Zm29.1 0v-.2c0-6.8-3.9-12.3-9.3-12.3-5.7 0-9 5.5-9 12.1v.2c0 6.9 3.9 12.3 9.3 12.3 5.6 0 9-5.5 9-12.1z" style="fill:#00d151;stroke:#00d151;stroke-width:1.645;stroke-miterlimit:10"/></g></svg>

<?xml version="1.0" encoding="utf-8"?>
<!-- Generator: Adobe Illustrator 28.2.0, SVG Export Plug-In . SVG Version: 6.00 Build 0)  -->
<svg version="1.1" id="Layer_1" xmlns="http://www.w3.org/2000/svg" xmlns:xlink="http://www.w3.org/1999/xlink" x="0px" y="0px"
	 viewBox="0 0 512 512" style="enable-background:new 0 0 512 512;" xml:space="preserve">
<style type="text/css">
	.st0{fill:#33B0DF;stroke:#33B0DF;stroke-width:2.5459;stroke-miterlimit:15.4766;}
</style>
<g id="XMLID_21_" transform="translate(27.018 -136.725) scale(1.54766)">
	<g id="XMLID_22_">
		<path id="XMLID_23_" d="M150.1,104c-1.2-1.4-3-2.2-4.8-2.2s-3.6,0.8-4.8,2.2C136,109.1,30.8,231.2,30.8,292.6
			c0,63.1,51.4,114.5,114.5,114.5s114.5-51.4,114.5-114.5C259.8,231.2,154.6,109.1,150.1,104L150.1,104z M145.3,394.4
			c-56.1,0-101.8-45.7-101.8-101.8c0-49.7,81-149.8,101.8-174.6c8.9,10.7,29,35.2,48.9,63.6c34.6,49.5,52.9,87.9,52.9,111
			C247.1,348.7,201.4,394.4,145.3,394.4L145.3,394.4z"/>
	</g>
</g>
<g id="XMLID_14_" transform="translate(27.018 -136.725) scale(1.54766)">
	<path id="XMLID_15_" class="st0" d="M100,268v-0.2c0-11.8,8.1-21.6,20-21.6s19.8,9.8,19.8,21.3v0.2c0,11.7-8,21.6-20,21.6
		C108,289.3,100,279.6,100,268z M129.1,268v-0.2c0-6.8-3.9-12.3-9.3-12.3c-5.7,0-9,5.5-9,12.1v0.2c0,6.9,3.9,12.3,9.3,12.3
		C125.7,280,129.1,274.5,129.1,268L129.1,268z M113.9,324.3l55.3-75.6c0.8-1.4,2.4-2.2,4.1-2.2c2.7,0,4.8,2,4.8,4.7
		c0,1.2-0.5,2.3-1.1,3.1L121.7,330c-1,1.4-2.5,2.2-4.2,2.2c-2.7,0-4.7-2-4.7-4.7C112.8,326.2,113.3,325.1,113.9,324.3L113.9,324.3z
		 M151,311.1v-0.2c0-11.8,8.1-21.6,20-21.6c11.8,0,19.8,9.8,19.8,21.3v0.2c0,11.7-8.1,21.6-20,21.6C159,332.5,151,322.7,151,311.1z
		 M180.1,311.1v-0.2c0-6.8-3.9-12.3-9.3-12.3c-5.7,0-9,5.5-9,12.1v0.2c0,6.9,3.9,12.3,9.3,12.3C176.7,323.2,180.1,317.7,180.1,311.1
		z"/>
</g>
</svg>
